src/assets/bold/lm-google-drive-bold.svg

<svg width="24" height="24" viewBox="0 0 24 24" fill="none" xmlns="http://www.w3.org/2000/svg" fill="currentColor">
<path d="M8.10688 4.36413C8.24242 4.13822 8.48655 4 8.75 4H14.75C15.0134 4 15.2576 4.13822 15.3931 4.36413L21.3931 14.3641C21.5356 14.6016 21.5356 14.8984 21.3931 15.1359L18.3931 20.1359C18.2576 20.3618 18.0134 20.5 17.75 20.5H5.75C5.48655 20.5 5.24242 20.3618 5.10688 20.1359L2.10688 15.1359C1.96437 14.8984 1.96437 14.6016 2.10688 14.3641L8.10688 4.36413ZM8.75 6.20774L3.62464 14.75L5.75 18.2923L8.09981 14.3759C8.10416 14.3684 8.10862 14.3609 8.11322 14.3536L10.8754 9.75L8.75 6.20774ZM7.07464 19H17.3254L19.4254 15.5H9.17464L7.07464 19ZM10.0746 14H13.4254L11.75 11.2077L10.0746 14ZM12.3932 9.36426L15.1746 14H19.4254L14.3254 5.5H10.0746L12.3932 9.36426Z" fill="black"/>
</svg>

<svg xmlns="http://www.w3.org/2000/svg" width="24" height="24" fill="currentColor" viewBox="0 0 24 24">
  <path d="M8.107 4.364A.75.75 0 0 1 8.75 4h6a.75.75 0 0 1 .643.364l6 10a.75.75 0 0 1 0 .772l-3 5a.75.75 0 0 1-.643.364h-12a.75.75 0 0 1-.643-.364l-3-5a.75.75 0 0 1 0-.772l6-10Zm.643 1.844L3.625 14.75l2.125 3.542 2.35-3.916a.711.711 0 0 1 .013-.022l2.762-4.604L8.75 6.208ZM7.075 19h10.25l2.1-3.5H9.175l-2.1 3.5Zm3-5h3.35l-1.675-2.792L10.075 14Zm2.318-4.636L15.175 14h4.25l-5.1-8.5h-4.25l2.318 3.864Z"/>
</svg>
